X:1
T:Sköna maj
C:L.M. Been
M:C
K:Bb
L:1/4
V:1 name="Trumpet in Bb II"
%%MIDI transpose -2
z | z/ (3F/4F/4F/4 F z/ (3F/4F/4F/4 F | z/ (3F/4F/4F/4 F/(3F/4F/4F/4 F z | z/ (3F/4F/4F/4 F z/ (3F/4F/4F/4 F | z/ (3F/4F/4F/4 F/(3F/4F/4F/4 F z | (D3/2 B/) (D3/2 F/) | E E z2 |
F3/2 F/ E3/2 E/ | (E2 D) z |: z/ C/4C/4 C/C/ C/C/C/C/ | z/ C/4C/4 C/C/ C/C/C/C/ | z/ C/4C/4 C/C/ C/C/C/C/ | 
